X: 51
T:Spanish Minuet (2)
M:6/8
L:1/8
Q:130
C:Trad
S:Blodau'r Grug Collection Vol. 1
R:Jig
A:Wales
Z:brian_martin12345@yahoo.com
K:Am
E|A2Bc2c|cB2-B2c/d/|e2cB2A|AB2E2E|A2Bc2c|cB2-B2c/d/|e2cB2c|A3A2:||!
c/d/|e2ee2c|d2dd2B|c2cc2A|B2B Bcd|e2ee2c|defe2d|cBAE2^G|A3A2:||

